X: 39797
T: Theme Of Casket
R: reel
M: 4/4
K: Edorian
|:EBBA BcdE|EBAG FAFD|EDBD dDBD|1 BdAG FAED:|2 BdAg fede||
|:GFED EBEF|GEDF GEFD|EBAd BAdA|1 Bfgf edBA:|2 Bfgf edBd||
|:eBfB AGFE|B2AG Fdef|1 gade fdBg|fedf e4:|2 gade fdBd|BdAG FAGF||

